!!!!SEGMENT: pl-wtm--r-1588--001_stefani-jozef--antiphonae-ad-vesperas-antiphona.krn
!!!cenid: 18xx:2343
!!!COM: Stefani, Józef
!!!COM-rismid: pe30024097
!!!CDT: 1800/04/16-1876/03/19
!!!CNT: Polish
!!!OPR: Antiphonae ad Vesperas
!!!OTL: Antiphona
!!!OMV: 001
!!!PDT:
!!!AGN: Sacred; Vespers
!!!SMS-siglum: PL-Wtm
!!!SMS-shelfmark: R 1588
!!!SMS-shelfwork: 001-001 M
!!!SMS-variant:
!!!SMS-altvar:
!!!NIFC-rismid: 1001115605
!!!URL-scan: http://repozytorium.nifc.pl/skany/pl-wtm-nut--r1588
!!!ONB-nifc: UWAGA: części: 4 Antyfony (001-004), Hymnus (005) i Magnificat (006)
!!!OMD: Andante.
!!!key:
**kern	**text	**kern	**kern	**text	**dynam
*part3	*part3	*part2	*part1	*part1	*part1
*staff3	*staff3	*staff2	*staff1	*staff1	*
*Iempty	*	*Itenor	*Itenor	*	*
*I"Basſo	*	*I"Tenore 2º.	*I"Tenore 1º.	*	*
*clefF4	*	*clefC4	*clefC4	*	*
*k[f#c#g#]	*	*k[c#f#g#]	*k[c#f#g#]	*	*
*A:	*	*A:	*A:	*	*
*M4/4	*	*M4/4	*M4/4	*	*
*met(c)	*	*met(c)	*met(c)	*	*
*all\right	*	*all\right	*all\right	*	*
!	!	!	!LO:TX:a:i:t=dolce	!	!
!	!	!LO:TX:t=P:problem=kolejność znaków c# F# G#	!LO:TX:t=P:problem=przy kluczu błędnie c# F# d#	!	!
!	!	!	!LO:TX:a:t=Antiphona Ia.	!	!LO:HP:b
4AA/	Dum	4E/	4c#\	Dum	<
=1	=1	=1	=1	=1	=1
4AA/	es-	(8F#/L	(8e\L	es-	[
.	.	8G#/J)	8d\J)	.	.
*	*	*	*2\right	*	*
2AA/	-set	2A/	2c#\	-set	.
4E\	Rex	4G#/	4B\	Rex	.
=2	=2	=2	=2	=2	=2
*2\right	*	*	*	*	*
2F#\	in	2F#/	2A\	in	.
4.E\	ac-	4.G#/	4.B\	ac-	.
8E\	-cu-	8G#/	8B\	-cu-	.
=3	=3	=3	=3	=3	=3
4.AA/	-bi-	4.A/	4.c#\	-bi-	.
8C#/	-tu	8A/	8e\	-tu	.
(4D/	su-	(>4F#/	(4d\	su-	.
4D#X/)	.	4A/)	4c#\)	.	.
!!LO:LB:g=original
=4	=4	=4	=4	=4	=4
2.E\	-o,	2.G#/	2.B\	-o,	.
4r	.	4r	4r	.	.
=5	=5	=5	=5	=5	=5
(2BB/	nar-	2.F#/	(2d\	nar-	.
!	!	!	!	!	!LO:DY:a
4D\)	.	.	4A\)	.	<
4D\	-dus	4F#/	4B\	-dus	[[
=6	=6	=6	=6	=6	=6
*	*	*^	*	*	*
*	*	*	*2\right	*	*	*
!	!	!	!	!	!	!LO:DY:a
2C#/	me-	2G#/	2F#\	2c#\	me-	>
4C#/	-a	4G#/	4E#X\	4c#\	-a	.
4r	.	4r	4ryy	4r	.	]
*	*	*v	*v	*	*	*
=7	=7	=7	=7	=7	=7
4D/	de-	4F#/	4B\	de-	.
8.BB/	-dit	8.B\	8.d\	-dit	.
16GG#/	o-	16d\	16f#\	o-	.
4AA/	-do-	4d\	4f#\	-do-	.
4AA/	-rem	4c#\	4e\	-rem	.
=8	=8	=8	=8	=8	=8
4BB/	su-	4F#/	4e\	su-	.
8.BB/	-a-	8.F#/	8.e\	-a-	.
16BB/	-vi-	16F#/	16d\	-vi-	.
2E\	-ta-	(4A\	(4c#\	-ta-	.
.	.	4G#\)	4B\)	[[-tis]]	.
!!LO:LB:g=original
=9	=9	=9	=9	=9	=9
4AA/	-tis	4A\	4c#\	-tis	.
4C#/	de-	4A\	4e\	de-	.
4D\	-dit	4A\	(8e#X\L	-dit	.
.	.	.	8f#\J)	.	.
4D\	o-	(8B/L	(8d\L	o-	.
.	.	8F#/J)	8B\J)	.	.
=10	=10	=10	=10	=10	=10
2E\	-do-	2A\	2c#\	-do-	.
4E\	-rem	4A\	4B\	-rem	.
4D\	su-	4G#\	4B\	su-	.
=11	=11	=11	=11	=11	=11
4C#\	-a-	4A\	4e\	-a-	.
4F#\	-vi-	4A\	4c#\	-vi-	.
(4BB/	-ta-	(4F#/	((8e\L	-ta-	.
.	.	.	8d\)	.	.
4E\)	.	(8A\L	(8c#\	.	.
.	.	8G#\J))	8B\J))	.	.
=12	=12	=12	=12	=12	=12
2A\	-tis.	2A\	2A\	-tis.	.
4r	.	4r	4r	.	.
==	==	==	==	==	==
*-	*-	*-	*-	*-	*-
!!!system-decoration: s1,s2,s3
!!!RDF**kern: > = above
!!!AIN: 1 empty 2 tenor
!!!ENC: Marta Lawrence
!!!END: 2021-06-13
!!!ENC: Andrzej Kubiczek
!!!END: 2021-06-04
